X: 10274
T: Dog A L'Orange
R: reel
M: 4/4
K: Bminor
~B2AB defd|~e2de eff2|fB~B2 defd|~e2fe edBA|
~B2AB defd|~e2de ef~f2|af~f2 edef|deed edBA:|
|:~B2AB ~d2~B2|BA~e2 edBA|~B2AB defd|~e2fe edBA|
~B2AB ~d2~B2|BA~e2 edef|af~f2 edef|deed edBA:|

